X:1
T:Joy to the World - Weihnachten naht
T:Joy to the World - Weihnachten naht
T:Vorspiel und Choral
T:Vorspiel:                         Aaron Rogers Melodie/Begleitung: Georg Fr. Händel 
T:Arrangement: G.Schaper 
T:Joy to the world - Weihnachten naht
T:Joy to the world - Weihnachten naht
C:Händel
Z:Notensatz: G.Schaper
%%score ( 1 2 ) ( 3 4 )
L:1/8
Q:1/4=160
M:4/4
K:Bb
V:1 treble transpose=-2 nm="Trompete in B"
V:2 treble transpose=-2 
V:3 bass nm="Posaune"
V:4 bass 
V:1
[K:Bb]!f!"^Vorspiel" c4 =B3 A | G8- | G8 | z2 G2 c2 =e2 | d4 d3 c | A8- | A8 | z4 d4 | %8
!<(! e4 d3 c | B4 e4 | f4 e3 d | c4 f4!<)! |!ff! g8- | !fermata!g8 |!mf! c4 =B3 A | G6 F2 | %16
 =E4 D4 | C6 G2 | A6 A2 | =B6 B2 | c8- | c6 c2 | c2 =B2 A2 G2 | G3 F =E2 c2 | c2 =B2 A2 G2 | %25
 G3 F =E2 E2 | =E2 E2 E2 EF | G6 F=E | D2 D2 D2 D=E | F6 =ED | C2 c4 A2 | G3 F =E2 F2 | =E4 D4 | %33
!f! c4 =B3 A | G8- | G8 | z2 G2 c2 =e2 | d4 d3 c | A8- | A8 | z4 d4 |!<(! e4 d3 c | B4 e4 | %43
 f4 e3 d | c4 ff f2!<)! |!ff! g8- | g8 |]"^Choralsatz 1" x8 | c4 =B3 A | G6 F2 | =E4 D4 | %51
 C4 z2 G2 | A6 A2 | =B6 B2 | c8- | c4 z2 c2 | c2 =B2 A2 G2 | G3 F =E2 c2 | c2 =B2 A2 G2 | %59
 G3 F =E2 E2 | =E2 E2 E2 EF | G6 F=E | D2 D2 D2 D=E | F6 =ED | C2 c4 A2 | G3 F =E2 F2 | =E4 D4 | %67
 C4 z4 |]"^Achtung Melodie in 2. Stimme!!""^Choralsatz 2" x8 |!f! c4!mf! c3 c | =e6 d2 | %71
 c2 G2 A2 =B2 | c6 z2 | z2 f2 f4 | z2 d2 d4 | =e6 e2 | =e2 g2 f2 e2 | =e3 d c2 e2 | =e2 g2 f2 e2 | %79
 =e3 d c2 c2 | c2 c2 c2 cd | =e6 dc | =B2 B2 B2 Bc | d6 c=B | c2 =e4 f2 | =e3 d c2 d2 | c4 =B4 | %87
 G4 z4 |] %88
V:2
[K:Bb] c4 =B3 A | G8- | G8 | x2 G2 c2 =e2 | ^F8 | A8- | A8 | x4 ^F4 | B8 | B4 B4 | c8 | c4 c4 | %12
 c8 | =B8 | c4 =B3 A | G6 F2 | =E4 D4 | C6 G2 | F6 F2 | G6 G2 | =E8- | E6 c2 | c2 =B2 A2 G2 | %23
 G3 F =E2 c2 | c2 =B2 A2 G2 | G3 F =E2 E2 | =E2 E2 E2 EF | G6 F=E | D2 D2 D2 D=E | F6 =ED | %30
 C2 c4 A2 | G3 F =E2 C2 | C4 =B,4 | c4 =B3 A | G8- | G8 | x2 G2 c2 =e2 | ^F8 | A8- | A8 | x4 ^F4 | %41
 B8 | B4 B4 | c8 | c4 c4 | c8- | c8 |] x8 | =E4 G3 F | =E6 D2 | C4 =B,4 | C4 z2 =E2 | F6 F2 | %53
 D6 D2 | =E8- | E4 z2 =E2 | =E2 G2 F2 E2 | =E3 D C2 E2 | =E2 G2 F2 E2 | =E3 D C2 C2 | C2 C2 C2 CD | %61
 =E6 DC | =B,2 B,2 B,2 B,C | D6 C=B, | C2 =E4 F2 | =E3 D C2 D2 | C4 =B,4 | C4 x4 |] x8 | c4 =B3 A | %70
 G6 F2 | =E4 D4 | C6 G2 | A6 A2 | =B6 B2 | c6 c2 | c2 =B2 A2 G2 | G3 F =E2 c2 | c2 =B2 A2 G2 | %79
 G3 F =E2 E2 | =E2 E2 E2 EF | G6 F=E | D2 D2 D2 D=E | F6 =ED | C2 c4 A2 | G3 F =E2 F2 | =E4 D4 | %87
 C4 z4 |] %88
V:3
 z8 | z2!f! F,2 B,2 C2 | D4 D3 C | B,4 F,4 | G,8 | z2 G,2 C2 D2 | =E4 E3 D | C4 G,4 |!<(! _D8- | %9
 D4 _D4 | E8- | E4 E4!<)! |!ff! F8- | !fermata!F8 | z8 | z2!mf! F,2 B,2 C2 | B,4 F,4 | D,8 | %18
 E,6 E,2 | C6 C2 | F,8- | F,8 | z8 | z4 z2 D2 | D2 C2 B,2 A,2 | A,3 G, F,2 z2 | z8 | z2 B,C D4 | %28
 z8 | z2 F,G, A,4 | z4 z2 B,2 | D3 C B,2 G,2 | F,4 F,4 | B,4 z4 | z2!f! F,2 B,2 C2 | D4 D3 C | %36
 B,4 F,4 | G,8 | z2 G,2 C2 D2 | =E4 E3 D | C4 G,4 |!<(! _D8- | D4 _D4 | E8- | E4 E4!<)! |!ff! F8- | %46
 F8 |] x8 | F,4 B,3 B, | B,6 G,2 | F,6 E,2 | D,4 z2 B,2 | B,6 B,2 | F,6 F,2 | F,8- | F,4 z2 F,2 | %56
 F,4 B,4 | F,6 F,2 | F,4 B,4 | B,6 z2 | z6 F,2 | F,2 F,2 F,2 F,2 | F,8- | F,4 z2 F,E, | %64
 D,2 F,4 B,2 | B,6 G,2 | F,4 F,2 E,2 | D,4 z4 |] x8 | B,4 B,3 B, | B,6 E,2 | F,4 F,4 | %72
 B,2 C2 D2 D2 | E6 E2 | F6 F2 | B,6 B,2 | B,4 B,4 | B,6 B,2 | B,4 B,4 | B,6 z2 | z4 z2 B,2 | %81
 B,2 B,2 B,2 B,2 | F6 F,2 | F,2 F,2 F,2 F,2 | B,6 B,2 | B,6 E,2 | F,4 F,4 | B,4 z4 |] %88
V:4
 x8 | x2 F,,2 B,,2 C,2 | D,4 D,3 C, | B,,4 F,,4 | G,,8 | x2 G,,2 C,2 D,2 | =E,4 E,3 D, | C,4 G,,4 | %8
 F,,8- | F,,4 F,,4 | G,,8- | G,,4 G,,4 | _G,,8- | G,,8 | x8 | x2 F,,2 B,,2 C,2 | B,,4 F,,4 | D,8 | %18
 E,6 E,2 | E,6 E,2 | B,,8- | B,,8 | x8 | x6 D,2 | D,2 C,2 B,,2 A,,2 | A,,3 G,, F,,2 z2 | x8 | %27
 x2 B,,C, D,4 | x8 | x2 F,,G,, A,,4 | x6 B,,2 | D,3 C, B,,2 G,,2 | F,,4 F,,4 | B,,4 z4 | %34
 x2 F,,2 B,,2 C,2 | D,4 D,3 C, | B,,4 F,,4 | G,,8 | x2 G,,2 C,2 D,2 | =E,4 E,3 D, | C,4 G,4 | %41
 F,8- | F,4 F,4 | G,8- | G,4 G,4 | F,8- | F,8 |] x8 | B,,4 B,,3 B,, | B,,6 E,2 | F,,4 F,,4 | %51
 B,,4 z2 D,2 | E,6 E,2 | F,6 F,2 | B,,8- | B,,4 z2 B,,2 | B,,4 B,,4 | B,,6 B,,2 | B,,4 B,,4 | %59
 B,,6 z2 | x6 B,,2 | B,,2 B,,2 B,,2 B,,2 | F,6 F,,2 | F,,2 F,,2 F,,2 F,,2 | B,,6 B,,2 | B,,6 C,2 | %66
 F,,4 F,,4 | B,,4 z4 |] x8 | D,4 F,3 E, | B,,2 C,2 D,2 E,2 | F,6 E,2 | D,6 z2 | x2 B,2 B,4 | %74
 x2 F,2 F,4 | F,6 F,2 | F,4 B,4 | B,6 F,2 | F,4 B,4 | B,6 z2 | x6 F,2 | F,2 F,2 F,2 F,2 | F,8 | %83
 F,6 F,E, | D,2 F,4 B,2 | B,6 G,2 | F,4 F,2 E,2 | D,4 z4 |] %88

